X:0557
T:Genl. Washington's March.
M:C
L:1/8
Q:1/2=72
I: :| || ||
Z:Jack Campin * www.campin.me.uk * 2009
K:G
 D2       |G2      G>G G>B``d>B      |A>GAB    TA2     \
 G>A      |B>ABc       B>(c d/c/B/A/)|B2    G>G G2   :|
 g>f      |e2      c>c c2   a/g/f/e/ |d2    B>B B2     \
 G/B/d/g/ |c2      A>A A>e``dc       |B2    G>G G2     \
 d>c      |B/c/d (3efg B2  TA2{GA}   |G2    G>G G2   ||
 g>a      |g/a/b   G>G G2   g>a      |g/a/b G>G G2     \
 g>f      |e>fg>a      bgfg          |e2    e>e e2
(b/g/f/e/)|d>^cde      dg```bd       |c>Bcd     ce`dc |\
          TB>ABc       B2 (TA2{GA})  |G2    G>G G2   |]

